src/images/svg/testimonials/arrow-left.svg

<svg width="32" height="32" viewBox="0 0 32 32" fill="none" xmlns="http://www.w3.org/2000/svg"><rect width="32" height="32" rx="16" fill="white"/><g clip-path="url(#clip0)"><path d="M16.7071 8.29289C17.0976 8.68342 17.0976 9.31658 16.7071 9.70711L11.414 14.999L23 15C23.5523 15 24 15.4477 24 16C24 16.5523 23.5523 17 23 17L11.414 16.999L16.7071 22.2929C17.0976 22.6834 17.0976 23.3166 16.7071 23.7071C16.3166 24.0976 15.6834 24.0976 15.2929 23.7071L8.29289 16.7071L8.21969 16.6254C8.21737 16.6226 8.21507 16.6197 8.21279 16.6167L8.29289 16.7071C8.2575 16.6717 8.22531 16.6343 8.19633 16.5953C8.17849 16.5711 8.16172 16.5463 8.14607 16.5207C8.13861 16.5086 8.1315 16.4964 8.12467 16.4841C8.11379 16.4643 8.10338 16.4439 8.09365 16.4231C8.08568 16.4061 8.0782 16.3888 8.07123 16.3713C8.06332 16.3516 8.05612 16.3318 8.04955 16.3117C8.04473 16.2969 8.0401 16.2815 8.03585 16.266C8.02983 16.2444 8.02464 16.2227 8.02017 16.2008C8.0167 16.1834 8.01363 16.1659 8.01102 16.1485C8.00811 16.1295 8.00577 16.1098 8.004 16.09C8.00189 16.066 8.00063 16.0427 8.00019 16.0194C8.00007 16.0135 8 16.0067 8 16L8.00019 15.9806C8.00063 15.9573 8.00189 15.934 8.00397 15.9107L8 16C8 15.9494 8.00376 15.8996 8.01102 15.851C8.01363 15.8341 8.0167 15.8166 8.02024 15.7993C8.02464 15.7773 8.02983 15.7556 8.03572 15.7342C8.0401 15.7185 8.04473 15.7031 8.04974 15.6879C8.05612 15.6682 8.06332 15.6484 8.0711 15.6289C8.0782 15.6112 8.08568 15.5939 8.09367 15.5768C8.10338 15.5561 8.11379 15.5357 8.12488 15.5157C8.1315 15.5036 8.13861 15.4914 8.146 15.4793C8.16172 15.4537 8.17849 15.4289 8.19631 15.4048C8.20175 15.3974 8.20728 15.3902 8.21293 15.383C8.23767 15.3515 8.26443 15.3214 8.29289 15.2929L15.2929 8.29289C15.6834 7.90237 16.3166 7.90237 16.7071 8.29289Z" fill="#999999"/></g><defs><clipPath id="clip0"><rect width="16" height="16" fill="white" transform="translate(8 8)"/></clipPath></defs></svg>

<svg width="32" height="32" fill="none" xmlns="http://www.w3.org/2000/svg"><rect width="32" height="32" rx="16" fill="#fff"/><g clip-path="url(#a)"><path d="M16.707 8.293a1 1 0 0 1 0 1.414L11.414 15 23 15a1 1 0 1 1 0 2l-11.586-.001 5.293 5.294a1 1 0 0 1-1.414 1.414l-7-7-.073-.082a.264.264 0 0 1-.007-.008l.08.09a1.011 1.011 0 0 1-.282-.559A.943.943 0 0 1 8 16v-.02c0-.023.002-.046.004-.07L8 16a1.009 1.009 0 0 1 .213-.617c.025-.031.051-.062.08-.09l7-7a1 1 0 0 1 1.414 0Z" fill="#999"/></g><defs><clipPath id="a"><path fill="#fff" transform="translate(8 8)" d="M0 0h16v16H0z"/></clipPath></defs></svg>
